img/skype-icon.svg

<?xml version="1.0" encoding="UTF-8"?>
<svg xmlns="http://www.w3.org/2000/svg" xmlns:xlink="http://www.w3.org/1999/xlink" viewBox="0 0 50 50" version="1.1" width="50px" height="50px">
<g id="surface1">
<path style=" " d="M 14.28125 0 C 6.410156 0 0 6.324219 0 14.09375 C 0 16.476563 0.621094 18.800781 1.78125 20.875 C 1.507813 22.3125 1.375 23.792969 1.375 25.25 C 1.375 38.25 12.074219 48.8125 25.25 48.8125 C 26.601563 48.8125 27.953125 48.722656 29.28125 48.5 C 31.257813 49.488281 33.480469 50 35.71875 50 C 43.589844 50 50 43.675781 50 35.90625 C 50 33.820313 49.539063 31.828125 48.65625 29.96875 C 48.976563 28.433594 49.15625 26.847656 49.15625 25.25 C 49.15625 12.253906 38.425781 1.6875 25.25 1.6875 C 24.011719 1.6875 22.761719 1.78125 21.53125 1.96875 C 19.335938 0.683594 16.847656 0 14.28125 0 Z M 25.09375 9.375 C 27.140625 9.375 28.933594 9.597656 30.4375 10.0625 C 31.945313 10.523438 33.222656 11.136719 34.21875 11.90625 C 35.226563 12.683594 35.996094 13.511719 36.46875 14.375 C 36.945313 15.246094 37.1875 16.132813 37.1875 16.96875 C 37.1875 17.777344 36.84375 18.484375 36.21875 19.125 C 35.59375 19.765625 34.808594 20.09375 33.875 20.09375 C 33.027344 20.09375 32.367188 19.898438 31.90625 19.5 C 31.476563 19.125 31.023438 18.554688 30.53125 17.71875 C 29.960938 16.648438 29.292969 15.777344 28.5 15.1875 C 27.730469 14.613281 26.421875 14.34375 24.65625 14.34375 C 23.015625 14.34375 21.675781 14.640625 20.6875 15.28125 C 19.730469 15.898438 19.28125 16.628906 19.28125 17.46875 C 19.28125 17.984375 19.441406 18.410156 19.75 18.78125 C 20.078125 19.171875 20.511719 19.496094 21.09375 19.78125 C 21.695313 20.078125 22.316406 20.332031 22.9375 20.5 C 23.574219 20.671875 24.660156 20.945313 26.125 21.28125 C 27.976563 21.675781 29.679688 22.089844 31.1875 22.5625 C 32.710938 23.046875 34.019531 23.652344 35.09375 24.34375 C 36.1875 25.046875 37.070313 25.949219 37.6875 27.03125 C 38.304688 28.113281 38.59375 29.441406 38.59375 31 C 38.589844 32.859375 38.066406 34.546875 37 36.03125 C 35.9375 37.511719 34.371094 38.703125 32.34375 39.53125 C 30.335938 40.351563 27.925781 40.75 25.1875 40.75 C 21.898438 40.75 19.148438 40.191406 17 39.0625 C 15.460938 38.246094 14.175781 37.117188 13.21875 35.75 C 12.242188 34.367188 11.75 33.011719 11.75 31.6875 C 11.75 30.863281 12.085938 30.152344 12.71875 29.5625 C 13.347656 28.984375 14.136719 28.6875 15.09375 28.6875 C 15.878906 28.6875 16.574219 28.914063 17.125 29.375 C 17.65625 29.816406 18.105469 30.472656 18.46875 31.3125 C 18.875 32.230469 19.308594 32.980469 19.78125 33.59375 C 20.226563 34.175781 20.863281 34.679688 21.6875 35.0625 C 22.515625 35.453125 23.652344 35.65625 25.03125 35.65625 C 26.925781 35.65625 28.460938 35.253906 29.625 34.46875 C 30.765625 33.703125 31.34375 32.785156 31.34375 31.65625 C 31.34375 30.765625 31.03125 30.046875 30.4375 29.5 C 29.8125 28.925781 28.992188 28.492188 28 28.1875 C 26.957031 27.871094 25.558594 27.519531 23.8125 27.15625 C 21.4375 26.652344 19.417969 26.046875 17.8125 25.375 C 16.167969 24.683594 14.84375 23.722656 13.875 22.53125 C 12.890625 21.316406 12.375 19.820313 12.375 18.03125 C 12.375 16.324219 12.902344 14.761719 13.9375 13.4375 C 14.957031 12.125 16.449219 11.105469 18.375 10.40625 C 20.273438 9.710938 22.539063 9.375 25.09375 9.375 Z "/>
</g>
</svg>

<svg xmlns="http://www.w3.org/2000/svg" viewBox="0 0 50 50" width="18" height="18"><path d="M14.281 0C6.411 0 0 6.324 0 14.094c0 2.383.621 4.707 1.781 6.781a23.531 23.531 0 0 0-.406 4.375c0 13 10.7 23.563 23.875 23.563 1.352 0 2.703-.09 4.031-.313 1.977.988 4.2 1.5 6.438 1.5C43.589 50 50 43.676 50 35.906c0-2.086-.46-4.078-1.344-5.937.32-1.535.5-3.121.5-4.719 0-12.996-10.73-23.563-23.906-23.563a24.7 24.7 0 0 0-3.719.282A14.316 14.316 0 0 0 14.281 0zm10.813 9.375c2.047 0 3.84.223 5.343.688 1.508.46 2.786 1.074 3.782 1.843 1.008.778 1.777 1.606 2.25 2.469.476.871.718 1.758.718 2.594 0 .808-.343 1.515-.968 2.156-.625.64-1.41.969-2.344.969-.848 0-1.508-.196-1.969-.594-.43-.375-.883-.945-1.375-1.781-.57-1.07-1.238-1.942-2.031-2.532-.77-.574-2.078-.843-3.844-.843-1.64 0-2.98.297-3.968.937-.958.617-1.407 1.348-1.407 2.188 0 .515.16.941.469 1.312.328.39.762.715 1.344 1 .601.297 1.222.551 1.843.719.637.172 1.723.445 3.188.781 1.852.395 3.555.809 5.063 1.282 1.523.484 2.832 1.09 3.906 1.78 1.093.704 1.976 1.606 2.593 2.688.618 1.082.907 2.41.907 3.969-.004 1.86-.528 3.547-1.594 5.031-1.063 1.48-2.629 2.672-4.656 3.5-2.008.82-4.418 1.219-7.157 1.219-3.289 0-6.039-.559-8.187-1.688a10.706 10.706 0 0 1-3.781-3.312c-.977-1.383-1.469-2.738-1.469-4.063 0-.824.336-1.535.969-2.125.629-.578 1.418-.875 2.375-.875.785 0 1.48.227 2.031.688.531.441.98 1.098 1.344 1.938.406.917.84 1.667 1.312 2.28.446.583 1.082 1.087 1.907 1.47.828.39 1.964.593 3.343.593 1.895 0 3.43-.402 4.594-1.187 1.14-.766 1.719-1.684 1.719-2.813 0-.89-.313-1.61-.907-2.156-.625-.574-1.445-1.008-2.437-1.313-1.043-.316-2.441-.667-4.188-1.03-2.375-.505-4.394-1.11-6-1.782-1.644-.691-2.968-1.652-3.937-2.844-.984-1.215-1.5-2.71-1.5-4.5 0-1.707.527-3.27 1.563-4.593 1.019-1.313 2.511-2.333 4.437-3.032 1.898-.695 4.164-1.031 6.719-1.031z"/></svg>
